X:231
T:Rodger de Calverley. Le4.231
T:Roger de Coverley,aka. Le4.231, Sir
L:1/8
B:L.Leadley MS#4 c1850
Z:vmp.Mike Hicken 2016 www.village-music-project.org.uk
Q:1/4=120
M:9/8
K:D
!p!A,|:DED D2B AFD|EFE E2D CB,A,|DED D2B ABc|d2D DED CB,A, :|
|: !f!AFA BGB AFD|!p!B,EE E2D CB,A,|!f! AFD BGE ABc|!p!d2D DED CB,A,:|
|:fga efg fed|cde efg f2e|fga bag fge|d2D DED CB,A, :|

